img/svg-bug.svg

<svg width="16" height="19" viewBox="0 0 16 19" fill="none" xmlns="http://www.w3.org/2000/svg">
<path fill-rule="evenodd" clip-rule="evenodd" d="M11.0945 0.217575C11.1076 0.198881 11.1334 0.194338 11.1521 0.207427L12.4302 1.10236C12.4489 1.11545 12.4534 1.14121 12.4403 1.15991L10.6614 3.70042C11.5263 3.97671 12.1154 4.27473 12.1154 4.27473C12.1154 4.27473 10.6753 6.75195 8.23263 6.75195C5.78997 6.75195 4.05424 4.44313 4.05424 4.44313C4.05424 4.44313 4.6697 4.05036 5.58201 3.71349L3.63081 1.38817C3.61615 1.37068 3.61844 1.34462 3.63591 1.32995L4.83114 0.327031C4.84864 0.312362 4.87469 0.314642 4.88936 0.332124L7.35989 3.2764C7.57143 3.25247 7.78694 3.23909 8.00442 3.23909C8.317 3.23909 8.6292 3.26286 8.93397 3.30318L11.0945 0.217575ZM11.5778 6.86927C12.2296 6.40372 13.216 5.18863 13.216 5.18863C13.216 5.18863 15.7355 7.18518 15.7355 11.4186C15.7355 15.652 11.3797 18.2 11.3797 18.2C11.3797 18.2 9.29858 16.0982 8.78768 13.434C8.27682 10.7698 9.54341 7.8115 9.54341 7.8115C9.54341 7.8115 10.9259 7.33481 11.5778 6.86927ZM4.55758 6.86927C3.90574 6.40372 2.91938 5.18863 2.91938 5.18863C2.91938 5.18863 0.399902 7.18518 0.399902 11.4186C0.399902 15.652 4.75569 18.2 4.75569 18.2C4.75569 18.2 6.8368 16.0982 7.34769 13.434C7.85856 10.7698 6.59196 7.8115 6.59196 7.8115C6.59196 7.8115 5.20946 7.33481 4.55758 6.86927Z" fill="#9BBA48"/>
</svg>

<svg width="16" height="19" fill="none" xmlns="http://www.w3.org/2000/svg"><path fill-rule="evenodd" clip-rule="evenodd" d="M11.095.218a.041.041 0 0 1 .057-.01l1.278.894a.041.041 0 0 1 .01.058L10.661 3.7c.865.277 1.454.575 1.454.575s-1.44 2.477-3.882 2.477c-2.443 0-4.179-2.309-4.179-2.309s.616-.393 1.528-.73L3.631 1.388a.041.041 0 0 1 .005-.058L4.83.327a.041.041 0 0 1 .058.005l2.47 2.944c.212-.024.428-.037.645-.037.313 0 .625.024.93.064l2.16-3.085Zm.483 6.651c.652-.465 1.638-1.68 1.638-1.68s2.52 1.996 2.52 6.23c0 4.233-4.356 6.781-4.356 6.781s-2.081-2.102-2.592-4.766c-.511-2.664.755-5.622.755-5.622s1.383-.477 2.035-.943Zm-7.02 0c-.652-.465-1.639-1.68-1.639-1.68S.4 7.185.4 11.419c0 4.233 4.357 6.781 4.357 6.781s2.08-2.102 2.592-4.766c.51-2.664-.756-5.622-.756-5.622s-1.383-.477-2.034-.943Z" fill="#9BBA48"/></svg>
